packages/ffe-icons/icons/open/300/sm/laptop_windows.svg

<svg xmlns="http://www.w3.org/2000/svg" height="20" viewBox="0 -960 960 960" width="20"><path d="M46-168.617q-11.068 0-18.533-7.405-7.465-7.404-7.465-18.384 0-10.979 7.465-18.595 7.465-7.615 18.534-7.615h158.308V-240h-24q-27.008 0-45.658-18.65-18.65-18.65-18.65-45.657V-711.69q0-27.007 18.65-45.657 18.65-18.65 45.658-18.65h599.382q27.008 0 45.658 18.65 18.65 18.65 18.65 45.657v407.383q0 27.007-18.65 45.657Q806.699-240 779.691-240h-24v19.384h158.308q11.069 0 18.534 7.405 7.466 7.405 7.466 18.384t-7.466 18.595q-7.465 7.615-18.534 7.615H46.001ZM180.31-291.999h599.382q5.385 0 8.847-3.461 3.462-3.462 3.462-8.847V-711.69q0-5.385-3.462-8.847-3.462-3.462-8.847-3.462H180.309q-5.385 0-8.847 3.462Q168-717.075 168-711.69v407.383q0 5.385 3.462 8.847 3.462 3.461 8.847 3.461Zm-12.309 0V-723.999v432Z"/></svg>

<svg xmlns="http://www.w3.org/2000/svg" height="20" viewBox="0 -960 960 960" width="20"><path d="M46-168.62q-11.07 0-18.53-7.4Q20-183.43 20-194.41T27.47-213q7.46-7.62 18.53-7.62h158.31V-240h-24q-27.01 0-45.66-18.65Q116-277.3 116-304.31v-407.38q0-27.01 18.65-45.66Q153.3-776 180.31-776h599.38q27.01 0 45.66 18.65Q844-738.7 844-711.69v407.38q0 27.01-18.65 45.66Q806.7-240 779.69-240h-24v19.38H914q11.07 0 18.53 7.41 7.47 7.4 7.47 18.38 0 10.98-7.47 18.6-7.46 7.61-18.53 7.61H46ZM180.31-292h599.38q5.39 0 8.85-3.46t3.46-8.85v-407.38q0-5.38-3.46-8.85-3.46-3.46-8.85-3.46H180.31q-5.39 0-8.85 3.46-3.46 3.47-3.46 8.85v407.38q0 5.39 3.46 8.85t8.85 3.46ZM168-292v-432 432Z"/></svg>
